X: 7476
T: Cnocán An Teampaill
R: jig
M: 6/8
K: Dmixolydian
cAG A3|ABG A2d|cAG A2G|ABA GED|
cAG A3|ABG A2d|cAG A2G|ABA GAB||
EDE c2E|c2E GED|EDE cde|dcA GED|
EDE c2E|c2E GED|EDE cde|dcA GAB||

